lib/brands/logos/axway.svg

<svg xmlns="http://www.w3.org/2000/svg" fill="none" aria-hidden="true" viewBox="0 0 171 69"><g id="Axway"><g id="Group"><g id="Union"><path fill="#181D21" fill-rule="evenodd" d="M10.2909 42.6604L15.1037 41.8583C16.3069 41.6578 16.5074 41.0562 16.5074 40.4546C16.5074 39.0509 15.5047 37.8477 13.0984 37.8477C10.692 37.8477 9.4888 39.2514 9.28827 41.0562L4.47552 40.0535C4.87659 36.845 7.68402 33.436 13.0984 33.436C19.3148 33.436 21.7212 37.0456 21.7212 41.0562V50.8822C21.7212 51.4115 21.7771 52.0525 21.8298 52.6578C21.877 53.1992 21.9217 53.712 21.9217 54.0907H17.109C16.9084 53.4891 16.9084 52.4864 16.9084 51.6843C15.9058 53.2886 13.9005 54.6923 11.093 54.6923C6.8819 54.6923 4.27499 51.8849 4.27499 48.6764C4.27499 45.0668 6.8819 43.0615 10.2909 42.6604ZM16.7079 46.0695V45.2673L12.2962 45.8689C10.8925 46.0695 9.88986 46.8716 9.88986 48.4758C9.88986 49.679 10.692 50.8822 12.4968 50.8822C14.5021 50.6817 16.7079 49.4785 16.7079 46.0695Z" clip-rule="evenodd"/><path fill="#181D21" d="M29.7426 44.0641L22.724 34.0376H29.141C29.5736 34.7587 31.0436 36.932 32.1334 38.5433L32.1339 38.5441L32.1352 38.5459C32.5599 39.1738 32.9267 39.7162 33.1516 40.0535L37.1622 34.0376H47.991L51.8011 46.8716L56.0122 34.0376H61.6271L66.0387 46.8716L69.6483 34.0376H75.0626L68.8462 54.0907H63.4318L58.8196 40.4546L54.2074 54.0907H48.7931L42.6242 34.813L36.1595 43.8636L43.3787 54.0907H37.1622L32.9511 47.8742C32.1489 48.8769 29.542 52.8875 28.9404 54.0907H22.9245L29.7426 44.0641Z"/><path fill="#181D21" fill-rule="evenodd" d="M80.477 42.6604L85.2898 41.8583C86.493 41.6578 86.6935 41.0562 86.6935 40.4546C86.6935 39.0509 85.6908 37.8477 83.2845 37.8477C80.8781 37.8477 79.6749 39.2514 79.4744 41.0562L74.6616 40.0535C75.0627 36.845 77.8701 33.436 83.2845 33.436C89.5009 33.436 91.9073 37.0456 91.9073 41.0562V50.8822C91.9073 51.4114 91.9632 52.0523 92.0159 52.6575C92.0631 53.1989 92.1078 53.712 92.1078 54.0907H87.0946C86.894 53.4891 86.894 52.4864 86.894 51.6843C85.8914 53.2886 83.8861 54.6923 81.0786 54.6923C76.8675 54.6923 74.2606 51.8849 74.2606 48.6764C74.4611 45.0668 77.068 43.0615 80.477 42.6604ZM86.894 46.0695V45.2673L82.4823 45.8689C81.0786 46.0695 80.076 46.8716 80.076 48.4758C80.076 49.679 80.8781 50.8822 82.6829 50.8822C84.6882 50.6817 86.894 49.4785 86.894 46.0695Z" clip-rule="evenodd"/><path fill="#181D21" d="M100.129 51.4838L95.5168 61.9114H101.132L113.765 34.0376H107.95L103.137 45.8689L97.7227 34.0376H91.7067L100.129 51.4838Z"/></g><g id="Union_2"><path fill="#D22630" d="M166.725 26.7423V19.9242L156.498 14.9109V25.138L117.394 6.48865V13.3067L162.113 34.563V24.5364L166.725 26.7423Z"/><path fill="#D22630" d="M127.4 31.6312V38.4493L134.62 41.8583L122.989 54.0907H130.609L144.245 39.6525L127.4 31.6312Z"/><path fill="#D22630" d="M122.788 19.1983L162.092 38.0482L154.071 41.0562L122.788 26.0164V19.1983Z"/></g></g></g></svg>

<svg xmlns="http://www.w3.org/2000/svg" fill="none" aria-hidden="true" viewBox="0 0 171 69"><g fill="#181D21"><path fill-rule="evenodd" d="m10.29 42.66 4.814-.802c1.203-.2 1.403-.802 1.403-1.403 0-1.404-1.002-2.607-3.409-2.607-2.406 0-3.61 1.403-3.81 3.208l-4.812-1.002c.4-3.209 3.208-6.618 8.622-6.618 6.217 0 8.623 3.61 8.623 7.62v9.826c0 .53.056 1.17.109 1.776.047.541.092 1.054.092 1.433h-4.813c-.2-.602-.2-1.605-.2-2.407-1.003 1.605-3.008 3.008-5.816 3.008-4.211 0-6.818-2.807-6.818-6.016 0-3.61 2.607-5.614 6.016-6.016Zm6.418 3.41v-.803l-4.412.602c-1.403.2-2.406 1.003-2.406 2.607 0 1.203.802 2.406 2.607 2.406 2.005-.2 4.21-1.404 4.21-4.813Z" clip-rule="evenodd"/><path d="m29.743 44.064-7.019-10.026h6.417c.433.72 1.903 2.894 2.992 4.505v.001l.002.002c.425.628.792 1.17 1.017 1.508l4.01-6.016h10.829l3.81 12.834 4.211-12.834h5.615l4.412 12.834 3.61-12.834h5.414L68.846 54.09h-5.414L58.82 40.455 54.207 54.09h-5.414l-6.169-19.278-6.465 9.05 7.22 10.228h-6.217l-4.21-6.217c-.803 1.003-3.41 5.014-4.012 6.217h-6.016l6.819-10.027Z"/><path fill-rule="evenodd" d="m80.477 42.66 4.813-.802c1.203-.2 1.403-.802 1.403-1.403 0-1.404-1.002-2.607-3.409-2.607-2.406 0-3.61 1.403-3.81 3.208l-4.812-1.002c.4-3.209 3.208-6.618 8.622-6.618 6.217 0 8.623 3.61 8.623 7.62v9.826c0 .53.056 1.17.109 1.776.047.54.092 1.054.092 1.433h-5.013c-.201-.602-.201-1.605-.201-2.407-1.003 1.605-3.008 3.008-5.815 3.008-4.211 0-6.818-2.807-6.818-6.016.2-3.61 2.807-5.614 6.216-6.016Zm6.417 3.41v-.803l-4.412.602c-1.403.2-2.406 1.003-2.406 2.607 0 1.203.802 2.406 2.607 2.406 2.005-.2 4.211-1.404 4.211-4.813Z" clip-rule="evenodd"/><path d="M100.129 51.484 95.517 61.91h5.615l12.633-27.873h-5.815l-4.813 11.83-5.414-11.83h-6.016l8.422 17.446Z"/></g><path fill="#D22630" d="M166.725 26.742v-6.818l-10.227-5.013v10.227l-39.104-18.65v6.819l44.719 21.256V24.536l4.612 2.206ZM127.4 31.631v6.818l7.22 3.41-11.631 12.232h7.62l13.636-14.438L127.4 31.63Zm-4.612-12.433 39.304 18.85-8.021 3.008-31.283-15.04v-6.818Z"/></svg>
